storage/app/icons/phosphoricons/regular/spinner.svg

<svg xmlns="http://www.w3.org/2000/svg" fill="currentColor" viewBox="0 0 256 256"><path d="M136 32v32a8 8 0 0 1-16 0V32a8 8 0 0 1 16 0m37.25 58.75a8 8 0 0 0 5.66-2.35l22.63-22.62a8 8 0 0 0-11.32-11.32L167.6 77.09a8 8 0 0 0 5.65 13.66M224 120h-32a8 8 0 0 0 0 16h32a8 8 0 0 0 0-16m-45.09 47.6a8 8 0 0 0-11.31 11.31l22.62 22.63a8 8 0 0 0 11.32-11.32ZM128 184a8 8 0 0 0-8 8v32a8 8 0 0 0 16 0v-32a8 8 0 0 0-8-8m-50.91-16.4-22.63 22.62a8 8 0 0 0 11.32 11.32l22.62-22.63a8 8 0 0 0-11.31-11.31M72 128a8 8 0 0 0-8-8H32a8 8 0 0 0 0 16h32a8 8 0 0 0 8-8m-6.22-73.54a8 8 0 0 0-11.32 11.32L77.09 88.4A8 8 0 0 0 88.4 77.09Z"/></svg>

<svg xmlns="http://www.w3.org/2000/svg" viewBox="0 0 256 256" fill="currentColor"><path d="M136,32V64a8,8,0,0,1-16,0V32a8,8,0,0,1,16,0Zm37.25,58.75a8,8,0,0,0,5.66-2.35l22.63-22.62a8,8,0,0,0-11.32-11.32L167.6,77.09a8,8,0,0,0,5.65,13.66ZM224,120H192a8,8,0,0,0,0,16h32a8,8,0,0,0,0-16Zm-45.09,47.6a8,8,0,0,0-11.31,11.31l22.62,22.63a8,8,0,0,0,11.32-11.32ZM128,184a8,8,0,0,0-8,8v32a8,8,0,0,0,16,0V192A8,8,0,0,0,128,184ZM77.09,167.6,54.46,190.22a8,8,0,0,0,11.32,11.32L88.4,178.91A8,8,0,0,0,77.09,167.6ZM72,128a8,8,0,0,0-8-8H32a8,8,0,0,0,0,16H64A8,8,0,0,0,72,128ZM65.78,54.46A8,8,0,0,0,54.46,65.78L77.09,88.4A8,8,0,0,0,88.4,77.09Z"/></svg>
